assets/svg/1F4DB.svg

<svg xmlns="http://www.w3.org/2000/svg" viewBox="0 0 64 64" enable-background="new 0 0 64 64"><g transform="translate(2)"><path d="m47.846 4.91l-6.919 10.262-10.228-15.168-.275-.004-10.23 15.172-6.929-10.285c-7.89 5.371-13.146 14.638-13.239 25.23l-.025 3.208c-.145 16.788 12.729 30.52 28.757 30.67l3.059.028c16.03.148 29.13-13.342 29.27-30.13l.027-3.207c.091-10.8-5.219-20.313-13.272-25.779" fill="#be202e"/><path d="m47.848 4.928l-1.633 2.421c.775 2.767 1.224 5.68 1.199 8.712l-.027 3.208c-.144 16.795-13.247 30.28-29.27 30.13l-3.059-.026c-4.434-.04-8.61-1.151-12.35-3.049 4.557 10.344 14.473 17.575 26.07 17.683l3.057.028c16.03.148 29.13-13.34 29.27-30.13l.029-3.208c.089-10.802-5.226-20.305-13.286-25.767" fill="#8b172c"/><path d="m55.89 34.2c-.032 3.744-2.955 6.757-6.529 6.722l-37.724-.351c-3.577-.035-6.445-3.097-6.414-6.844l.008-.972c.029-3.745 2.954-6.754 6.529-6.721l37.725.352c3.575.034 6.443 3.1 6.412 6.845l-.007.969" fill="#fff"/></g></svg>

<?xml version="1.0" encoding="UTF-8" standalone="no"?>
<!-- Generator: Adobe Illustrator 16.0.0, SVG Export Plug-In . SVG Version: 6.00 Build 0)  -->

<svg
   xmlns:dc="http://purl.org/dc/elements/1.1/"
   xmlns:cc="http://creativecommons.org/ns#"
   xmlns:rdf="http://www.w3.org/1999/02/22-rdf-syntax-ns#"
   xmlns:svg="http://www.w3.org/2000/svg"
   xmlns="http://www.w3.org/2000/svg"
   xmlns:sodipodi="http://sodipodi.sourceforge.net/DTD/sodipodi-0.dtd"
   xmlns:inkscape="http://www.inkscape.org/namespaces/inkscape"
   version="1.1"
   id="Layer_1"
   x="0px"
   y="0px"
   width="64px"
   height="64px"
   viewBox="0 0 64 64"
   enable-background="new 0 0 64 64"
   xml:space="preserve"
   inkscape:version="0.48.5 r10040"
   sodipodi:docname="1F4DB.svg"
   inkscape:export-filename="D:\TESTINGEMOJI\SVGTEST\1F4DB.png"
   inkscape:export-xdpi="90"
   inkscape:export-ydpi="90"><metadata
   id="metadata41969"><rdf:RDF><cc:Work
       rdf:about=""><dc:format>image/svg+xml</dc:format><dc:type
         rdf:resource="http://purl.org/dc/dcmitype/StillImage" /><dc:title></dc:title></cc:Work></rdf:RDF></metadata><defs
   id="defs41967" /><sodipodi:namedview
   pagecolor="#ffffff"
   bordercolor="#666666"
   borderopacity="1"
   objecttolerance="10"
   gridtolerance="10"
   guidetolerance="10"
   inkscape:pageopacity="0"
   inkscape:pageshadow="2"
   inkscape:window-width="1250"
   inkscape:window-height="803"
   id="namedview41965"
   showgrid="false"
   inkscape:zoom="3.6875"
   inkscape:cx="32"
   inkscape:cy="32"
   inkscape:window-x="596"
   inkscape:window-y="138"
   inkscape:window-maximized="0"
   inkscape:current-layer="Layer_1" />
<g
   id="g41957"
   transform="translate(2,0)">
	<path
   d="M 47.846,4.91 40.927,15.172 30.699,0.004 30.424,0 20.194,15.172 13.265,4.887 C 5.375,10.258 0.119,19.525 0.026,30.121 l -0.025,3.208 c -0.145,16.788 12.729,30.52 28.757,30.67 l 3.059,0.028 C 47.845,64.175 60.95,50.685 61.091,33.896 l 0.027,-3.207 C 61.209,19.889 55.899,10.376 47.846,4.91 z"
   id="path41959"
   inkscape:connector-curvature="0"
   style="fill:#be202e" />
	<path
   d="m 47.848,4.928 -1.633,2.421 c 0.775,2.767 1.224,5.68 1.199,8.712 l -0.027,3.208 C 47.243,36.064 34.14,49.55 18.114,49.397 L 15.055,49.371 C 10.621,49.331 6.445,48.22 2.705,46.322 7.262,56.666 17.178,63.897 28.773,64.005 l 3.057,0.028 c 16.027,0.148 29.132,-13.34 29.275,-30.13 l 0.029,-3.208 C 61.223,19.893 55.908,10.39 47.848,4.928 z"
   id="path41961"
   inkscape:connector-curvature="0"
   style="fill:#8b172c" />
	<path
   d="m 55.89,34.203 c -0.032,3.744 -2.955,6.757 -6.529,6.722 L 11.637,40.574 C 8.06,40.539 5.192,37.477 5.223,33.73 L 5.231,32.758 C 5.26,29.013 8.185,26.004 11.76,26.037 l 37.725,0.352 c 3.575,0.034 6.443,3.1 6.412,6.845 l -0.007,0.969 z"
   id="path41963"
   inkscape:connector-curvature="0"
   style="fill:#ffffff" />
</g>
</svg>
